X:158
T:Sister Susan
M:2/4
L:1/16
Q:1/4=3D120
K:G
G2G2 G2DD|B,2D2 G4  |GGGG G2BB|(A4 d2)z2|
GGGG G2D2|B,2D2 G4  |BBBB A2DD|G6 B2|
B2BB B2B2|A2d2  c2A2|BBBB A2DD|G4  ||
